icons/1_Primary/OneProvider.svg

<svg width="1024" height="1024" fill="none" xmlns="http://www.w3.org/2000/svg"><g clip-path="url(#a)"><path d="M512 1024c282.77 0 512-229.23 512-512S794.77 0 512 0 0 229.23 0 512s229.23 512 512 512Z" fill="#FF837D"/><path d="M478.3 357.3c4.9-18 10.6-35.6 17-52.5h19.2v52.4h-1.3c-12 0-23.7 0-34.9.1Zm-50.3 1c8.6-18.1 18.5-35.9 29.6-53.1 7.6-.1 15.6-.2 24-.3-6.3 17-11.9 34.7-16.7 52.6-12.4.2-24.8.5-36.9.8Zm86.6 231.3c-17.5-.1-35-.3-52.2-.7-3.2-23.3-4.9-47.1-5.1-70.8h57.3v71.5Zm-19 127.1c-6.7-17.3-12.6-35-17.6-52.5 11.4.1 23.3.2 35.6.2h1v52.4h-8.3c-3.7 0-7.2 0-10.7-.1Zm120.1-358c-12.6-.4-25-.7-37.1-.9-4.8-17.9-10.3-35.5-16.6-52.5 7.9.1 15.9.3 24.2.5 11.1 17 20.9 34.8 29.5 52.9Zm-50.4-1.1c-13-.2-25.6-.3-37.9-.4v-52.3c6.8 0 13.7.1 20.9.2 6.4 16.9 12.1 34.5 17 52.5Zm138.4 68.9c-17.1-1.4-34-2.6-50.5-3.6-4.6-16.9-10.5-33.9-17.5-50.7 14.2.5 28.6 1.1 43 1.8 10.3 17.3 18.7 34.9 25 52.5ZM384.3 585.6c-16.6-1-32.7-2.1-48-3.4-6.7-21.3-10.4-42.8-11.2-64.1h52.3c0 22.6 2.3 45.2 6.9 67.5ZM599 505.2c-.3-24-2.1-48.2-5.3-72.1 17.1.5 33.4 1.2 49.4 2.1 5.7 23.4 9.1 46.9 10 70.1l-54.1-.1ZM404 649.7c-12.6-.4-25.1-.9-37.4-1.5-10.6-17.4-19.2-35.1-25.8-52.7 15.1 1.2 30.7 2.2 46.3 3.1 4.3 17.1 9.9 34.2 16.9 51.1Zm35 66.2c-7.6-.2-14.7-.4-21.2-.6-16.4-17.9-30.8-35.9-42.8-53.9 11.3.5 22.9.9 34.6 1.3 8.3 18 18.1 35.9 29.4 53.2ZM325 505.2c.4-21.9 4-44 10.6-65.8 16.6-1.4 33.8-2.6 51.5-3.6-5.4 23.1-8.6 46.4-9.5 69.4H325Zm14.9-79c6.4-17.7 14.8-35.4 25.2-52.7 13.9-.7 28.2-1.3 42.9-1.7-7.1 17-13 34.1-17.6 51.1-17.2.9-34.1 2-50.5 3.3Zm33.5-66c12.2-18.6 26.6-36.7 42.8-53.9 7.9-.3 16.5-.6 26-.8-10.7 17.2-20.3 35-28.5 53.1-13.7.5-27.2 1-40.3 1.6Zm30.5 61.9c4.8-16.9 10.9-34 18.2-50.8 12.4-.4 25.6-.7 39.5-.9-4 16.4-7.3 33.1-10 49.8-16 .5-32 1.1-47.7 1.9Zm60.9-2.3c2.7-16.7 6.1-33.3 10.2-49.6 12.3-.1 25.1-.2 38.4-.2h1.3v49.2c-16.7 0-33.4.2-49.9.6Zm114 .1c-17-.4-34.2-.6-51.4-.7V370c13.3.1 27.1.2 41.3.4 4 16.2 7.4 32.8 10.1 49.5Zm-51.4 98.2h58.8c-.2 23.7-1.9 47.4-5.1 70.7-17.8.5-35.8.7-53.7.8v-71.5Zm-70.1-12.9c.3-24.1 2.2-48.5 5.5-72.6 17-.4 34.4-.7 51.7-.7v73.3h-57.2Zm-66.8 0c.9-23.2 4.2-46.8 10-70.2 16.2-.8 32.7-1.5 49.4-2-3.2 23.9-5 48.1-5.3 72.2h-54.1Zm123.4 146.4c-13.6 0-26.7-.1-39.3-.2-4.2-16.3-7.6-33-10.3-49.6 16.5.4 33.4.6 50.3.7v49.2l-.7-.1Zm68.4-.7c4-16.3 7.4-32.9 10-49.6 17.2-.5 34.2-1.2 50.7-2.1-4.4 16.9-10.2 33.9-17.4 50.5-14.2.5-28.8.9-43.3 1.2Zm-132.9-62.4c-17.2-.5-34.6-1.3-51.9-2.2-4.8-22.4-7.3-45.3-7.3-68.2h54.3c.2 23.5 1.9 47.2 4.9 70.4Zm11.9 62.6c-14.7-.2-29.2-.6-43.2-1-7.2-16.7-13.1-33.8-17.5-50.9 16.9.9 33.9 1.6 50.7 2 2.6 16.9 6 33.6 10 49.9ZM311.6 363.9c14.7-20.8 32.2-39.1 52.3-54.8 4.2-.3 15.7-1.2 34.3-2-15.4 17.3-28.9 35.4-40.5 53.9-20.5 1-36.1 2.1-46.1 2.9Zm-34.4 68.4c6.3-19.2 14.8-37.6 25.4-54.8 6.4-.5 22.6-1.8 47.2-3.2-9.9 17.5-17.9 35.3-23.9 53.1-22.4 1.9-39 3.7-48.7 4.9ZM384 294.9c16.1-10.2 33.1-18.5 51-24.9-7.2 6.4-15.6 14.3-24.5 23.6-10.5.5-19.3 1-26.5 1.3Zm82.4-2.6c13.2-19 23.9-31.2 27.8-35.5 2.7-.3 5.5-.5 8.4-.7-3.9 7.9-9.7 20.1-16 36-7.1 0-13.8.1-20.2.2Zm-37.2.8c18.2-17.8 32.7-28.9 36.7-31.8 3-.7 6-1.3 9.1-1.8-6.4 7.9-14.9 19-24.3 33.1-7.7.1-14.8.3-21.5.5ZM264.7 505.2c.5-20.1 3.4-40.1 8.6-59.6 7.2-.9 23.9-2.9 48.6-5.1-6 21.4-9.3 43.1-9.7 64.7h-47.5Zm217.2 211.5c-9.6-.1-18.6-.2-27.1-.4-11.8-17.3-22.1-35.1-30.7-53.1 13.4.4 27 .7 40.6.9 4.8 17.5 10.6 35.1 17.2 52.6ZM500.4 292c5.7-14.1 10.8-24.7 14.2-31.4V292h-14.2Zm-25.6 471.8c-2.9-.5-5.7-1.1-8.6-1.7-12.6-10.9-24.5-22.2-35.7-33.6 5.5.2 11.3.3 17.5.4 8.2 11.7 17.2 23.4 26.8 34.9Zm130-48.5c11.2-17.3 21-35.1 29.2-53 11.4-.4 23-.9 34.8-1.4-11.9 17.9-26.2 35.9-42.5 53.7-7.3.2-14.4.5-21.5.7Zm54.5-129.9c4.5-22.2 6.8-44.8 6.8-67.4h52.3c-.8 21.2-4.5 42.7-11.1 63.8-16.2 1.5-32.3 2.7-48 3.6Zm-131.9 79c12.3-.1 25.1-.2 38.1-.4-4.9 17.6-10.8 35.2-17.5 52.5-7.1.1-13.9.2-20.6.2v-52.3Zm0-372.4v-34.5c3.3 6.3 9.1 18.2 15.8 34.7-5.4-.1-10.6-.1-15.8-.2Zm87.6 1.8c-7.4-.2-14.7-.5-21.8-.6-9.4-14.1-18-25.4-24.4-33.3 3.2.6 6.3 1.3 9.5 2 4.8 3.4 19 14.5 36.7 31.9Zm-37.5-1.1c-7-.1-13.8-.3-20.4-.4-6.4-16.1-12.1-28.4-16-36.2 2.8.2 5.7.5 8.5.8 4 4.5 14.8 16.9 27.9 35.8Zm81.2 2.7c-8.5-.4-16.9-.7-25-1-8.7-9.1-17-17-24.2-23.4 17.3 6.4 33.7 14.5 49.2 24.4Zm71.9 68.7c-14.4-.9-29.1-1.8-44.4-2.5-11.5-18.5-25-36.5-40.2-53.8 10.5.4 21.2.9 32.2 1.4 20.2 15.6 37.7 34.1 52.4 54.9Zm-126 389.7c5.7-5.4 8.8-8.2 10.8-10.1 4-3.7 4-3.7 12.6-12.4l4-4.1c6.5-.3 13.9-.5 21.5-.7 3.1-.1 6.3-.1 9.4-.2-17 10.7-36.8 20.1-58.3 27.5ZM322.2 581c-24.9-2.2-42.3-4.4-49.9-5.4-4.8-18.8-7.5-38.1-8-57.6h47.6c.7 21 4.1 42.1 10.3 63Zm29 66.4c-25.6-1.4-43.2-3-50-3.6-10.3-17.2-18.6-35.4-24.7-54.5 10 1.2 27.3 3.1 50.2 5 6.2 17.7 14.4 35.5 24.5 53.1Zm48.8 67.2c-19.3-.9-31.4-1.7-35.8-2-21.8-17.2-40.2-36-53.8-55 10.7.8 27.4 1.9 48.9 3 11.4 18 25 36.1 40.7 54Zm40 39.7c-19.8-6.9-38.8-16.2-56.4-27.7 7.6.4 17.1.9 28.4 1.3 8.3 8.7 18 17.6 28 26.4Zm74.4 6.8c-3.9-8.8-9.5-21.4-13.8-31.5h13.8v31.5Zm-11 6.5c-3.2-.2-6.6-.5-9.3-.7-10.9-12.3-21.1-24.8-30.3-37.3 7.3.1 14.9.2 23 .3 5.2 12.8 10.9 25.8 16.6 37.7Zm24-38.1c5 0 10.1-.1 15.4-.1-4.7 11-11.2 24.8-15.4 33.7v-33.6Zm12 38.5c4.9-10.5 12.6-27.3 17.4-38.8 7.6-.1 15.3-.3 23.3-.4-10.1 14-20.1 26.6-30.5 38.3-3.5.3-6.9.6-10.2.9Z" fill="#fff"/></g><defs><clipPath id="a"><path fill="#fff" d="M0 0h1024v1024H0z"/></clipPath></defs></svg>

<svg width="1024" height="1024" viewBox="0 0 1024 1024" fill="none" xmlns="http://www.w3.org/2000/svg">
<g clip-path="url(#clip0_2_3018)">
<path d="M512 1024C794.77 1024 1024 794.77 1024 512C1024 229.23 794.77 0 512 0C229.23 0 0 229.23 0 512C0 794.77 229.23 1024 512 1024Z" fill="#FF837D"/>
<path d="M478.3 357.3C483.2 339.3 488.9 321.7 495.3 304.8H514.5V357.2H513.2C501.2 357.2 489.5 357.2 478.3 357.3ZM428 358.3C436.6 340.2 446.5 322.4 457.6 305.2C465.2 305.1 473.2 305 481.6 304.9C475.3 321.9 469.7 339.6 464.9 357.5C452.5 357.7 440.1 358 428 358.3ZM514.6 589.6C497.1 589.5 479.6 589.3 462.4 588.9C459.2 565.6 457.5 541.8 457.3 518.1H514.6V589.6ZM495.6 716.7C488.9 699.4 483 681.7 478 664.2C489.4 664.3 501.3 664.4 513.6 664.4H514.6V716.8H506.3C502.6 716.8 499.1 716.8 495.6 716.7ZM615.7 358.7C603.1 358.3 590.7 358 578.6 357.8C573.8 339.9 568.3 322.3 562 305.3C569.9 305.4 577.9 305.6 586.2 305.8C597.3 322.8 607.1 340.6 615.7 358.7ZM565.3 357.6C552.3 357.4 539.7 357.3 527.4 357.2V304.9C534.2 304.9 541.1 305 548.3 305.1C554.7 322 560.4 339.6 565.3 357.6ZM703.7 426.5C686.6 425.1 669.7 423.9 653.2 422.9C648.6 406 642.7 389 635.7 372.2C649.9 372.7 664.3 373.3 678.7 374C689 391.3 697.4 408.9 703.7 426.5ZM384.3 585.6C367.7 584.6 351.6 583.5 336.3 582.2C329.6 560.9 325.9 539.4 325.1 518.1H377.4C377.4 540.7 379.7 563.3 384.3 585.6ZM599 505.2C598.7 481.2 596.9 457 593.7 433.1C610.8 433.6 627.1 434.3 643.1 435.2C648.8 458.6 652.2 482.1 653.1 505.3L599 505.2ZM404 649.7C391.4 649.3 378.9 648.8 366.6 648.2C356 630.8 347.4 613.1 340.8 595.5C355.9 596.7 371.5 597.7 387.1 598.6C391.4 615.7 397 632.8 404 649.7ZM439 715.9C431.4 715.7 424.3 715.5 417.8 715.3C401.4 697.4 387 679.4 375 661.4C386.3 661.9 397.9 662.3 409.6 662.7C417.9 680.7 427.7 698.6 439 715.9ZM325 505.2C325.4 483.3 329 461.2 335.6 439.4C352.2 438 369.4 436.8 387.1 435.8C381.7 458.9 378.5 482.2 377.6 505.2H325ZM339.9 426.2C346.3 408.5 354.7 390.8 365.1 373.5C379 372.8 393.3 372.2 408 371.8C400.9 388.8 395 405.9 390.4 422.9C373.2 423.8 356.3 424.9 339.9 426.2ZM373.4 360.2C385.6 341.6 400 323.5 416.2 306.3C424.1 306 432.7 305.7 442.2 305.5C431.5 322.7 421.9 340.5 413.7 358.6C400 359.1 386.5 359.6 373.4 360.2ZM403.9 422.1C408.7 405.2 414.8 388.1 422.1 371.3C434.5 370.9 447.7 370.6 461.6 370.4C457.6 386.8 454.3 403.5 451.6 420.2C435.6 420.7 419.6 421.3 403.9 422.1ZM464.8 419.8C467.5 403.1 470.9 386.5 475 370.2C487.3 370.1 500.1 370 513.4 370H514.7V419.2C498 419.2 481.3 419.4 464.8 419.8ZM578.8 419.9C561.8 419.5 544.6 419.3 527.4 419.2V370C540.7 370.1 554.5 370.2 568.7 370.4C572.7 386.6 576.1 403.2 578.8 419.9ZM527.4 518.1H586.2C586 541.8 584.3 565.5 581.1 588.8C563.3 589.3 545.3 589.5 527.4 589.6V518.1ZM457.3 505.2C457.6 481.1 459.5 456.7 462.8 432.6C479.8 432.2 497.2 431.9 514.5 431.9V505.2H457.3ZM390.5 505.2C391.4 482 394.7 458.4 400.5 435C416.7 434.2 433.2 433.5 449.9 433C446.7 456.9 444.9 481.1 444.6 505.2H390.5ZM513.9 651.6C500.3 651.6 487.2 651.5 474.6 651.4C470.4 635.1 467 618.4 464.3 601.8C480.8 602.2 497.7 602.4 514.6 602.5V651.7L513.9 651.6ZM582.3 650.9C586.3 634.6 589.7 618 592.3 601.3C609.5 600.8 626.5 600.1 643 599.2C638.6 616.1 632.8 633.1 625.6 649.7C611.4 650.2 596.8 650.6 582.3 650.9ZM449.4 588.5C432.2 588 414.8 587.2 397.5 586.3C392.7 563.9 390.2 541 390.2 518.1H444.5C444.7 541.6 446.4 565.3 449.4 588.5ZM461.3 651.1C446.6 650.9 432.1 650.5 418.1 650.1C410.9 633.4 405 616.3 400.6 599.2C417.5 600.1 434.5 600.8 451.3 601.2C453.9 618.1 457.3 634.8 461.3 651.1ZM311.6 363.9C326.3 343.1 343.8 324.8 363.9 309.1C368.1 308.8 379.6 307.9 398.2 307.1C382.8 324.4 369.3 342.5 357.7 361C337.2 362 321.6 363.1 311.6 363.9ZM277.2 432.3C283.5 413.1 292 394.7 302.6 377.5C309 377 325.2 375.7 349.8 374.3C339.9 391.8 331.9 409.6 325.9 427.4C303.5 429.3 286.9 431.1 277.2 432.3ZM384 294.9C400.1 284.7 417.1 276.4 435 270C427.8 276.4 419.4 284.3 410.5 293.6C400 294.1 391.2 294.6 384 294.9ZM466.4 292.3C479.6 273.3 490.3 261.1 494.2 256.8C496.9 256.5 499.7 256.3 502.6 256.1C498.7 264 492.9 276.2 486.6 292.1C479.5 292.1 472.8 292.2 466.4 292.3ZM429.2 293.1C447.4 275.3 461.9 264.2 465.9 261.3C468.9 260.6 471.9 260 475 259.5C468.6 267.4 460.1 278.5 450.7 292.6C443 292.7 435.9 292.9 429.2 293.1ZM264.7 505.2C265.2 485.1 268.1 465.1 273.3 445.6C280.5 444.7 297.2 442.7 321.9 440.5C315.9 461.9 312.6 483.6 312.2 505.2H264.7ZM481.9 716.7C472.3 716.6 463.3 716.5 454.8 716.3C443 699 432.7 681.2 424.1 663.2C437.5 663.6 451.1 663.9 464.7 664.1C469.5 681.6 475.3 699.2 481.9 716.7ZM500.4 292C506.1 277.9 511.2 267.3 514.6 260.6V292H500.4ZM474.8 763.8C471.9 763.3 469.1 762.7 466.2 762.1C453.6 751.2 441.7 739.9 430.5 728.5C436 728.7 441.8 728.8 448 728.9C456.2 740.6 465.2 752.3 474.8 763.8ZM604.8 715.3C616 698 625.8 680.2 634 662.3C645.4 661.9 657 661.4 668.8 660.9C656.9 678.8 642.6 696.8 626.3 714.6C619 714.8 611.9 715.1 604.8 715.3ZM659.3 585.4C663.8 563.2 666.1 540.6 666.1 518H718.4C717.6 539.2 713.9 560.7 707.3 581.8C691.1 583.3 675 584.5 659.3 585.4ZM527.4 664.4C539.7 664.3 552.5 664.2 565.5 664C560.6 681.6 554.7 699.2 548 716.5C540.9 716.6 534.1 716.7 527.4 716.7V664.4ZM527.4 292V257.5C530.7 263.8 536.5 275.7 543.2 292.2C537.8 292.1 532.6 292.1 527.4 292ZM615 293.8C607.6 293.6 600.3 293.3 593.2 293.2C583.8 279.1 575.2 267.8 568.8 259.9C572 260.5 575.1 261.2 578.3 261.9C583.1 265.3 597.3 276.4 615 293.8ZM577.5 292.7C570.5 292.6 563.7 292.4 557.1 292.3C550.7 276.2 545 263.9 541.1 256.1C543.9 256.3 546.8 256.6 549.6 256.9C553.6 261.4 564.4 273.8 577.5 292.7ZM658.7 295.4C650.2 295 641.8 294.7 633.7 294.4C625 285.3 616.7 277.4 609.5 271C626.8 277.4 643.2 285.5 658.7 295.4ZM730.6 364.1C716.2 363.2 701.5 362.3 686.2 361.6C674.7 343.1 661.2 325.1 646 307.8C656.5 308.2 667.2 308.7 678.2 309.2C698.4 324.8 715.9 343.3 730.6 364.1ZM604.6 753.8C610.3 748.4 613.4 745.6 615.4 743.7C619.4 740 619.4 740 628 731.3L632 727.2C638.5 726.9 645.9 726.7 653.5 726.5C656.6 726.4 659.8 726.4 662.9 726.3C645.9 737 626.1 746.4 604.6 753.8ZM322.2 581C297.3 578.8 279.9 576.6 272.3 575.6C267.5 556.8 264.8 537.5 264.3 518H311.9C312.6 539 316 560.1 322.2 581ZM351.2 647.4C325.6 646 308 644.4 301.2 643.8C290.9 626.6 282.6 608.4 276.5 589.3C286.5 590.5 303.8 592.4 326.7 594.3C332.9 612 341.1 629.8 351.2 647.4ZM400 714.6C380.7 713.7 368.6 712.9 364.2 712.6C342.4 695.4 324 676.6 310.4 657.6C321.1 658.4 337.8 659.5 359.3 660.6C370.7 678.6 384.3 696.7 400 714.6ZM440 754.3C420.2 747.4 401.2 738.1 383.6 726.6C391.2 727 400.7 727.5 412 727.9C420.3 736.6 430 745.5 440 754.3ZM514.4 761.1C510.5 752.3 504.9 739.7 500.6 729.6H514.4V761.1ZM503.4 767.6C500.2 767.4 496.8 767.1 494.1 766.9C483.2 754.6 473 742.1 463.8 729.6C471.1 729.7 478.7 729.8 486.8 729.9C492 742.7 497.7 755.7 503.4 767.6ZM527.4 729.5C532.4 729.5 537.5 729.4 542.8 729.4C538.1 740.4 531.6 754.2 527.4 763.1V729.5ZM539.4 768C544.3 757.5 552 740.7 556.8 729.2C564.4 729.1 572.1 728.9 580.1 728.8C570 742.8 560 755.4 549.6 767.1C546.1 767.4 542.7 767.7 539.4 768Z" fill="white"/>
</g>
<defs>
<clipPath id="clip0_2_3018">
<rect width="1024" height="1024" fill="white"/>
</clipPath>
</defs>
</svg>
